!!!COM: Igor (Fyodorovich) Stravinsky
!!!OTL: [T399_Str-w57p25-26m189]
**kern	**text	**kern	**text	**kern	**text	**kern	**text
*grp:A	*grp:A	*grp:A	*grp:A	*grp:B	*grp:B	*grp:A	*grp:A
*part4	*part4	*part3	*part3	*part2	*part2	*part1	*part1
*staff4	*staff4	*staff3	*staff3	*staff2	*staff2	*staff1	*staff1
*I"BASS 2	*I"BASS 2	*I"BASS 1	*I"BASS 1	*I"TENOR 2	*I"TENOR 2	*I"TENOR 1	*I"TENOR 1
*I'B.	*	*I'B.	*	*I'T.	*	*I'T.	*
!!pagebreak:original
*clefF4	*	*clefF4	*	*clefG2	*	*clefG2	*
*	*	*	*	*ITrd7c12	*	*ITrd7c12	*
*k[]	*	*k[]	*	*k[]	*	*k[]	*
*C:	*	*C:	*	*C:	*	*C:	*
*M2/2	*	*M2/2	*	*=	*	*	*
!	!	!	!	!	!	!LO:TX:a:B:t=[quarter] = [quarter]  Canon a4, duplex	!
1D#X	Re-	1r	.	1r	.	1r	.
=2	=2	=2	=2	=2	=2	=2	=2
*M3/2	*	*M3/2	*	*	*	*	*
1E	-cor-	2%3r	.	2%3r	.	2%3r	.
(2AA	-da-	.	.	.	.	.	.
=3	=3	=3	=3	=3	=3	=3	=3
*	*	*	*	*M3/2	*	*M3/2	*
2FF)	.	2F	Re-	2r	.	2%3r	.
2BB-X	-re	2F	-cor-	1B-X	Re-	.	.
[2GG	pau-	(4F	-da-	.	.	.	.
.	.	4E)	.	.	.	.	.
=4	=4	=4	=4	=4	=4	=4	=4
2GG]	.	2E	-re	1Bn	-cor-	2d-X	Re-
(1C	-per-	(2F	pau-	.	.	2d-	-cor-
.	.	2E)	.	(2E	-da-	(4d-	-da-
.	.	.	.	.	.	4c)	.
=5	=5	=5	=5	=5	=5	=5	=5
2A-X)	.	(2E	-per-	2C)	.	2c	-re
2C-X	-ta-	2F)	.	2F	-re	(2d	pau-
[2Dn	-tis	2F	-ta-	[2D	pau-	2c)	.
=6	=6	=6	=6	=6	=6	=6	=6
4D]	.	(4A	-tis	2D]	.	(2c	-per-
4r	.	2E)	.	.	.	.	.
1r	.	.	.	(1G	-per-	2d)	.
.	.	2.E	et	.	.	.	.
.	.	.	.	.	.	2d	-ta-
!!linebreak:original
=7	=7	=7	=7	=7	=7	=7	=7
1r	.	(4A	trans-	2e-X)	.	4f	-tis,
.	.	4E)	.	.	.	2c	.
.	.	4E	-gres-	2G-X	-ta-	.	.
.	.	2E	-sio-	.	.	2.c	et
2C#X	et	.	.	[2An	-tis,	.	.
.	.	4E	-nis	.	.	.	.
=8	=8	=8	=8	=8	=8	=8	=8
4F#X	trans-	(4F#X	me-	4A]	.	(4fn	trans-
4E-X	-gres-	4G)	.	4r	.	4c)	.
2Dn	-sio-	2G	-ae,	1r	.	4c	-gres-
.	.	.	.	.	.	2c	-sio-
[2AAn	-nis	2C	ab-	.	.	.	.
.	.	.	.	.	.	4c	-nis
=9	=9	=9	=9	=9	=9	=9	=9
2AAn]	.	2A-X	-sin-	1r	.	(4dn	me-
.	.	.	.	.	.	4e-X)	.
2C#X	me-	4D-X	-thi-	.	.	2e-	-ae,
.	.	2B-X	-i	.	.	.	.
[2GG#X	-ae,	.	.	2A-X	et	2A-X	ab-
.	.	4E-X	et	.	.	.	.
=10	=10	=10	=10	=10	=10	=10	=10
2GG#]	.	2Bn	fel-	4d-X	trans-	2en	-sin-
.	.	.	.	4B-X	-gres-	.	.
2BB#X	ab-	2Dn	-lis.	2An	-sio-	4An	-thi-
.	.	.	.	.	.	2f#X	-i
2F#X	-sin-	2r	.	[2En	-nis	.	.
.	.	.	.	.	.	4Bn	et
!!linebreak:original
=11	=11	=11	=11	=11	=11	=11	=11
1AA#X	-thi-	2%3r	.	2En]	.	2g	fel-
.	.	.	.	2G#X	me-	2B-X	-lis.
2GGn	-i	.	.	[2D#X	-ae,	2r	.
=12	=12	=12	=12	=12	=12	=12	=12
*M3/2	*	*M3/2	*	*M3/2	*	*M3/2	*
1En	et	2%3r	.	2D#]	.	2%3r	.
.	.	.	.	2F#X	ab-	.	.
[2Fn	fel-	.	.	2c#X	-sin-	.	.
=13	=13	=13	=13	=13	=13	=13	=13
2F]	.	2%3r	.	1Fn	-thi-	2%3r	.
[1Cn	-lis.	.	.	.	.	.	.
.	.	.	.	2Dn	-i	.	.
=14	=14	=14	=14	=14	=14	=14	=14
*M6/2	*	*M6/2	*	*M6/2	*	*M6/2	*
1C_	.	1%3r	.	1Bn	et	1%3r	.
1C_	.	.	.	1cn	fel-	.	.
.	.	.	.	.	.	.	.
1C],	.	.	.	1Gn,	-lis.	.	.
.	.	.	.	.	.	.	.
=	=	=	=	=	=	=	=
*-	*-	*-	*-	*-	*-	*-	*-
!!!system-decoration: [(s1,s2,s3,s4)]
